X:1
T:Title
%%score { ( 1 3 ) | ( 2 4 ) }
L:1/8
M:4/4
K:Eb
V:1 treble nm="Grand Piano"
V:3 treble 
V:2 bass 
V:4 bass 
V:1
 z4 z[Q:1/4=90] [GB][GB][GB] |[M:3/4] [GB]3 [_G=A] [_Ac][=GB] | [EG]4 [EB]2 | [EA]3 [EB] [Ec][Ee] | %4
[M:3/8] [EB]3 | [Ge][Ge][Ae] |[M:3/4] [Be]3 G AB | c4 e2 | B3 c BD |[M:3/8] E3 | B=AB | %11
[M:4/4] e6[K:bass][K:treble] z2 | B6[K:bass][K:treble] z2 | [AB]6 z2 | %14
 [EGB]4- [EGB][GB][_G=A][=GB] | [Ge]6 z2 | c6[K:bass][K:treble] z2 | [EGB]4- [EGB]cBD | %18
[M:5/8] E-E- E3 |] %19
V:2
 z4 z [E,E][E,E][E,E] |[M:3/4] [E,E]3 [E,E] [E,E][E,E] | [E,B,]4 [_D,G,]2 | %3
 [C,A,]3 [B,,G,] [A,,A,][C,A,] |[M:3/8] [E,G,]3 | [E,B,][E,B,][F,B,] | %6
[M:3/4] [G,E]3 [E,B,E] [F,B,D][K:treble][G,B,E] | [A,E]4 [A,CA]2 | %8
 [B,EG]3 [G,E][K:bass] [F,B,D][B,,A,B,] |[M:3/8] [E,G,B,]3 | [EG][E_G][E=G] | %11
[M:4/4] G4- [E,G][B,E][=A,E][B,E] | [EG]6[K:bass] E,2 | B,,F,F,F, F,F,D,B,, | E,2 G,B, E,EEE | %15
 z E, .G,2 E,[K:treble][B,E][B,F][EG] | [EA]6 [A,CA]2 | %17
 B,B,B,B, B,[K:treble][G,EG][F,B,F][K:bass][B,,A,B,] |[M:5/8] [E,G,B,]-[E,G,B,]- [E,G,B,]3 |] %19
V:3
 x8 |[M:3/4] x6 | x6 | x6 |[M:3/8] x3 | x3 |[M:3/4] x6 | x6 | x6 |[M:3/8] x3 | x3 | %11
[M:4/4] z[K:bass] E, .G,2 B,[K:treble]G_G=G | z[K:bass] E,G,B, E,2[K:treble] [EGB]2 | %13
 DDDD D[DAc][FAB][DAc] | x8 | z4 B,GAB | z[K:bass] A,,C,E, A,2[K:treble] e2 | x8 |[M:5/8] x5 |] %19
V:4
 x8 |[M:3/4] x6 | x6 | x6 |[M:3/8] x3 | x3 |[M:3/4] x5[K:treble] x | x6 | x4[K:bass] x2 | %9
[M:3/8] x3 | x3 |[M:4/4] B,4 z4 | x6[K:bass] x2 | x8 | x8 | B,4 z4[K:treble] | x8 | %17
 x5[K:treble] x2[K:bass] x |[M:5/8] x5 |] %19

